storage/app/icons/phosphoricons/bold/jar-label-bold.svg

<svg xmlns="http://www.w3.org/2000/svg" fill="currentColor" viewBox="0 0 256 256"><path d="M188 49.68V32a20 20 0 0 0-20-20H88a20 20 0 0 0-20 20v17.68A44.06 44.06 0 0 0 36 92v108a44.05 44.05 0 0 0 44 44h96a44.05 44.05 0 0 0 44-44V92a44.06 44.06 0 0 0-32-42.32M60 120h136v48H60Zm104-72h-24V36h24Zm-48-12v12H92V36ZM80 72h96a20 20 0 0 1 20 20v4H60v-4a20 20 0 0 1 20-20m96 148H80a20 20 0 0 1-20-20v-8h136v8a20 20 0 0 1-20 20"/></svg>

<svg xmlns="http://www.w3.org/2000/svg" viewBox="0 0 256 256" fill="currentColor"><path d="M188,49.68V32a20,20,0,0,0-20-20H88A20,20,0,0,0,68,32V49.68A44.06,44.06,0,0,0,36,92V200a44.05,44.05,0,0,0,44,44h96a44.05,44.05,0,0,0,44-44V92A44.06,44.06,0,0,0,188,49.68ZM60,120H196v48H60ZM164,48H140V36h24ZM116,36V48H92V36ZM80,72h96a20,20,0,0,1,20,20v4H60V92A20,20,0,0,1,80,72Zm96,148H80a20,20,0,0,1-20-20v-8H196v8A20,20,0,0,1,176,220Z"/></svg>
